X: 1
T: Hag With No Money, The
M: 6/8
L: 1/8
R: jig
K: Gmaj
BcB G2D|EGA GED|~E3 AGA|BcB AGE|
BAB G2D|EGA GED|E2A AGA|BAG G2A:|
Bde ged|Bdc BAG|~E3 AGA|BcB AGE|
[1Bde ged|Bdc BAG|E2A AGA|BAG G2A:|
[2Bde geg|~a3 bag|edB AGE|DEG G3||
